gilbertguide/assets/images/item_10047.svg

<?xml version="1.0" standalone="no"?><!DOCTYPE svg PUBLIC "-//W3C//DTD SVG 1.1//EN" "http://www.w3.org/Graphics/SVG/1.1/DTD/svg11.dtd"><svg xmlns="http://www.w3.org/2000/svg" version="1.1" width="125px" height="46px" viewBox="0 0 125 46"><desc>Home</desc><defs/><g id="Polygon10927"><path d="m36 15.2l0 4.2l4 0l0-4.2l2.4 0l0 10.8l-2.4 0l0-4.5l-4 0l0 4.5l-2.5 0l0-10.8l2.5 0zm16.2 6.8c0 2.9-2.1 4.2-4.2 4.2c-2.3 0-4-1.5-4-4.1c0-2.5 1.6-4.1 4.2-4.1c2.4 0 4 1.6 4 4zm-5.7.1c0 1.3.6 2.3 1.6 2.3c1 0 1.5-.9 1.5-2.3c0-1.2-.4-2.4-1.5-2.4c-1.2 0-1.6 1.2-1.6 2.4zm7.2-1.4c0-1-.1-1.8-.1-2.5c0-.02 2.1 0 2.1 0l.1 1c0 0 0 .03 0 0c.3-.5 1-1.2 2.4-1.2c1 0 1.8.5 2.1 1.3c0 0 0 0 0 0c.4-.4.7-.7 1.1-.9c.4-.3.9-.4 1.5-.4c1.5 0 2.6 1 2.6 3.4c0-.01 0 4.6 0 4.6l-2.4 0c0 0 .03-4.26 0-4.3c0-1.1-.3-1.7-1.1-1.7c-.6 0-1 .3-1.2.8c0 .2 0 .4 0 .6c-.04.02 0 4.6 0 4.6l-2.4 0c0 0 0-4.4 0-4.4c0-1-.4-1.6-1.1-1.6c-.7 0-1 .4-1.2.8c-.1.2-.1.4-.1.6c.03.04 0 4.6 0 4.6l-2.3 0c0 0-.04-5.33 0-5.3zm15.6 2.2c.1 1 1.1 1.5 2.2 1.5c.8 0 1.5-.2 2.2-.4c0 0 .3 1.7.3 1.7c-.8.3-1.8.5-2.9.5c-2.6 0-4.1-1.6-4.1-4c0-2 1.2-4.2 3.9-4.2c2.6 0 3.5 2 3.5 3.9c0 .4 0 .8-.1 1c0 0-5 0-5 0zm2.9-1.7c0-.6-.3-1.6-1.4-1.6c-1 0-1.5 1-1.5 1.6c0 0 2.9 0 2.9 0z" stroke="none" fill="#fff"/></g></svg>

<?xml version="1.0" standalone="no"?><!DOCTYPE svg PUBLIC "-//W3C//DTD SVG 1.1//EN" "http://www.w3.org/Graphics/SVG/1.1/DTD/svg11.dtd"><svg xmlns="http://www.w3.org/2000/svg" version="1.1" width="125px" height="46px" viewBox="0 0 125 46">  <desc>Home</desc>  <defs/>  <g id="Polygon10786">    <path d="M 36 15.2 L 36 19.4 L 40 19.4 L 40 15.2 L 42.4 15.2 L 42.4 26 L 40 26 L 40 21.5 L 36 21.5 L 36 26 L 33.5 26 L 33.5 15.2 L 36 15.2 Z M 52.2 22 C 52.2 24.9 50.1 26.2 48 26.2 C 45.7 26.2 44 24.7 44 22.1 C 44 19.6 45.6 18 48.2 18 C 50.6 18 52.2 19.6 52.2 22 Z M 46.5 22.1 C 46.5 23.4 47.1 24.4 48.1 24.4 C 49.1 24.4 49.6 23.5 49.6 22.1 C 49.6 20.9 49.2 19.7 48.1 19.7 C 46.9 19.7 46.5 20.9 46.5 22.1 Z M 53.7 20.7 C 53.7 19.7 53.6 18.9 53.6 18.2 C 53.6 18.18 55.7 18.2 55.7 18.2 L 55.8 19.2 C 55.8 19.2 55.8 19.23 55.8 19.2 C 56.1 18.7 56.8 18 58.2 18 C 59.2 18 60 18.5 60.3 19.3 C 60.3 19.3 60.3 19.3 60.3 19.3 C 60.7 18.9 61 18.6 61.4 18.4 C 61.8 18.1 62.3 18 62.9 18 C 64.4 18 65.5 19 65.5 21.4 C 65.5 21.39 65.5 26 65.5 26 L 63.1 26 C 63.1 26 63.13 21.74 63.1 21.7 C 63.1 20.6 62.8 20 62 20 C 61.4 20 61 20.3 60.8 20.8 C 60.8 21 60.8 21.2 60.8 21.4 C 60.76 21.42 60.8 26 60.8 26 L 58.4 26 C 58.4 26 58.4 21.6 58.4 21.6 C 58.4 20.6 58 20 57.3 20 C 56.6 20 56.3 20.4 56.1 20.8 C 56 21 56 21.2 56 21.4 C 56.03 21.44 56 26 56 26 L 53.7 26 C 53.7 26 53.66 20.67 53.7 20.7 Z M 69.3 22.9 C 69.4 23.9 70.4 24.4 71.5 24.4 C 72.3 24.4 73 24.2 73.7 24 C 73.7 24 74 25.7 74 25.7 C 73.2 26 72.2 26.2 71.1 26.2 C 68.5 26.2 67 24.6 67 22.2 C 67 20.2 68.2 18 70.9 18 C 73.5 18 74.4 20 74.4 21.9 C 74.4 22.3 74.4 22.7 74.3 22.9 C 74.3 22.9 69.3 22.9 69.3 22.9 Z M 72.2 21.2 C 72.2 20.6 71.9 19.6 70.8 19.6 C 69.8 19.6 69.3 20.6 69.3 21.2 C 69.3 21.2 72.2 21.2 72.2 21.2 Z " stroke="none" fill="#fff"/>  </g></svg>
